pointercrate-demonlist-pages/static/images/flags/us/in.svg

<?xml version="1.0" encoding="UTF-8"?><svg xmlns="http://www.w3.org/2000/svg" xmlns:xlink="http://www.w3.org/1999/xlink" width="750" height="500">
<rect width="750" height="500" id="rect1526" style="fill:#000f5d"/>
<use transform="translate(94.998437,-302.57555)" id="use4474" xlink:href="#path72"/>
<use transform="translate(165.10176,-239.95912)" id="use4472" xlink:href="#path72"/>
<use transform="translate(202.31636,-149.82232)" id="use4468" xlink:href="#path72"/>
<use transform="translate(126.44047,-126.44797)" id="use4466" xlink:href="#path72"/>
<use transform="translate(187.86405,-50.087407)" id="use4464" xlink:href="#path72"/>
<use transform="translate(131.65888,27.026192)" id="use4462" xlink:href="#path72"/>
<use transform="translate(88.726724,-37.115289)" id="use4460" xlink:href="#path72"/>
<use transform="translate(47.979803,74.909224)" id="use4458" xlink:href="#path72"/>
<use transform="translate(-52.93993,74.909224)" id="use4442" xlink:href="#path72"/>
<use transform="translate(-88.937372,-37.115289)" id="use4440" xlink:href="#path72"/>
<use transform="translate(-136.78986,27.026192)" id="use4444" xlink:href="#path72"/>
<use transform="translate(-191.93667,-50.087407)" id="use4446" xlink:href="#path72"/>
<use transform="translate(-204.36749,-149.82232)" id="use4450" xlink:href="#path72"/>
<use transform="translate(-127.05167,-126.44797)" id="use4448" xlink:href="#path72"/>
<use transform="translate(-166.33627,-239.95912)" id="use4452" xlink:href="#path72"/>
<use transform="translate(-95.803472,-302.57555)" id="use4454" xlink:href="#path72"/>
<use transform="translate(-0.23142361,-328.73602)" id="use4456" xlink:href="#path72"/>
<use transform="matrix(-1,0,0,1,752.2069,0)" id="use4438" xlink:href="#path112"/>
<use transform="matrix(-1,0,0,1,751.83265,0)" id="use4436" xlink:href="#path110"/>
<use transform="matrix(-1,0,0,1,751.65672,0)" id="use4434" xlink:href="#path108"/>
<path d="M 354.95018,372.00322 L 370.90411,371.99164 L 376.16124,356.40597 L 381.03319,372.03944 L 397.10166,372.03553 L 384.64728,382.15514 L 389.16062,396.95805 L 376.00022,388.06183 L 362.95541,397.02868 L 367.39789,382.02521 L 354.95018,372.00322 z" id="path72" style="fill:#d59f0f"/>
<path d="M 346.35055,114.65178 L 368.85295,114.69937 L 376.26166,92.714791 L 383.12529,114.71017 L 405.75066,114.73246 L 388.20221,128.96962 L 394.5602,149.82634 L 376.04666,137.32131 L 357.64566,149.94348 L 363.90115,128.77515 L 346.35055,114.65178 z" id="path90" style="fill:#d59f0f"/>
<path d="M 347.52856,222.70253 C 347.4874,222.66214 347.44302,222.60687 347.41502,222.54936 C 329.2787,198.59476 347.7268,189.79066 348.09995,172.84414 C 360.1017,195.12577 342.5136,202.05748 363.42376,222.71921 L 347.52856,222.70253 z" id="path92" style="fill:#d59f0f"/>
<path d="M 367.55914,222.71763 C 361.17397,213.73554 356.69497,199.39741 358.61092,190.03068 C 360.51103,180.66868 366.99816,171.45004 366.0992,164.3641 C 369.47814,172.34214 372.6558,175.4172 371.67189,181.28864 C 376.74893,166.14796 388.41897,158.32285 404.23967,157.54485 C 375.78601,179.16672 412.92895,195.78433 388.36879,222.74202 L 367.55914,222.71763 z" id="path94" style="fill:#d59f0f"/>
<path d="M 393.64217,222.75386 C 416.2383,195.49043 387.48335,181.51801 413.68964,169.30208 C 414.65397,177.3624 408.2312,177.35649 411.06196,187.22123 C 411.54714,191.49333 410.95543,194.97861 409.57113,197.95418 C 412.2374,194.68587 417.42328,188.52085 420.7161,186.12245 C 412.9239,197.86106 421.29136,208.13345 402.49587,222.75309 L 393.25346,222.75616" id="path96" style="fill:#d59f0f"/>
<path d="M 389.82136,281.58361 C 390.82888,256.02095 396.29828,248.23921 406.66763,237.54812 C 386.54613,237.50072 364.05939,237.49715 345.7624,237.48412 C 356.08816,248.19192 361.55073,255.97891 362.50416,281.53921 C 371.61069,281.54324 380.71485,281.56127 389.82136,281.58361 z" id="path98" style="fill:#d59f0f"/>
<path d="M 376.07106,343.98852 L 384.03191,368.9587 L 388.42946,294.87416 C 380.23138,294.84636 372.03328,294.83544 363.83518,294.82352 L 368.05515,368.9428 z" id="path100" style="fill:#d59f0f"/>
<path d="M 375.95444,455.95155 C 379.46647,452.69495 380.46383,442.08558 380.46383,442.08558 L 382.64795,398.78646 L 376.01383,394.12493 L 369.36464,398.77199 L 371.47948,442.08215 C 371.47948,442.08215 372.42152,452.66141 375.93833,455.95502 L 375.95444,455.95155 z" id="path102" style="fill:#d59f0f"/>
<path d="M 411.54548,232.95842 L 340.79522,232.8825 L 340.80282,226.16746 L 411.56793,226.24019 L 411.54548,232.95842 z" id="path104" style="fill:#d59f0f"/>
<path d="M 394.32085,292.6443 L 356.99902,292.6056 L 357.009,284.2516 L 394.33432,284.30641 L 394.32085,292.6443 z" id="path106" style="fill:#d59f0f"/>
<path d="M 200.58174,226.53289 L 333.81402,210.57135 L 333.39761,206.99529 L 200.13809,222.98088 L 200.58174,226.53289 z" id="path108" style="fill:#d59f0f"/>
<path d="M 225.89566,145.68825 L 335.46309,187.81998 L 336.75089,184.47609 L 227.19984,142.34212 L 225.89566,145.68825 z" id="path110" style="fill:#d59f0f"/>
<path d="M 293.74159,98.652483 L 340.89124,165.82514 L 343.81529,163.74908 L 296.653,96.596011 L 293.74159,98.652483 z" id="path112" style="fill:#d59f0f"/>
<path d="M 373.88872,142.71881 L 373.8549,167.16286 L 377.43995,167.1661 L 377.45418,142.70943 L 373.88872,142.71881 z" id="path114" style="fill:#d59f0f"/>
<path d="M 336.86717,114.9936 L 321.38502,107.05518 L 322.46289,104.95307 L 337.94502,112.89149 L 336.86717,114.9936 M 339.50483,109.27627 L 326.99545,97.18368 L 328.79335,95.323842 L 343.52839,98.265219 C 343.85242,98.326562 344.14872,98.393923 344.41728,98.46733 C 344.68583,98.540768 344.9239,98.62306 345.1315,98.714178 L 334.99152,88.912036 L 336.55953,87.289988 L 349.0689,99.38258 L 347.28745,101.22543 L 332.30187,98.28831 C 332.07277,98.242099 331.84346,98.184722 331.61397,98.116203 C 331.38997,98.042041 331.1602,97.956828 330.92467,97.86056 L 341.06464,107.66273 L 339.50483,109.27627 M 352.71073,80.587962 L 348.92506,82.064004 L 353.7437,94.422423 L 357.52934,92.946384 C 359.15073,92.314208 360.1714,91.311921 360.59138,89.939525 C 361.00846,88.559837 360.81511,86.839205 360.01131,84.777631 C 359.2418,82.804108 358.23069,81.457261 356.97791,80.737094 C 355.72515,80.016925 354.30275,79.967245 352.71073,80.587962 M 352.31508,97.261458 L 345.99464,81.051358 L 352.16835,78.644185 C 354.42802,77.763164 356.41895,77.764467 358.14115,78.64809 C 359.87069,79.528905 361.23175,81.242187 362.22439,83.787932 C 363.25131,86.421786 363.42724,88.715479 362.75214,90.669097 C 362.08152,92.612499 360.63106,94.019009 358.40076,94.888627 L 352.31508,97.261458 M 368.67726,92.330698 L 367.30166,74.986458 L 369.65661,74.79968 L 371.03221,92.143923 L 368.67726,92.330698 M 379.32059,85.20946 L 384.64506,86.231076 L 383.44694,78.183506 L 379.32059,85.20946 M 373.0168,91.360617 L 382.64055,75.49103 L 385.20418,75.982928 L 388.2942,94.291867 L 385.77698,93.808911 L 384.94666,88.357608 L 378.21856,87.066694 L 375.41802,91.821354 L 373.0168,91.360617 M 390.0233,95.218923 L 399.85772,80.866231 L 401.99161,82.328384 L 401.55157,97.347685 C 401.54518,97.67743 401.52823,97.980814 401.50069,98.25784 C 401.47312,98.534895 401.43173,98.78336 401.37654,99.003268 L 409.34821,87.369097 L 411.2093,88.644298 L 401.37488,102.99699 L 399.26048,101.54821 L 399.65448,86.28258 C 399.66182,86.048986 399.68011,85.81331 399.70934,85.575606 C 399.74506,85.342361 399.79073,85.10159 399.84631,84.853298 L 391.87462,96.487442 L 390.0233,95.218923 M 411.65492,104.6862 L 414.54312,109.27445 L 419.60599,102.90529 L 411.65492,104.6862 M 402.8567,104.27873 L 421.02302,100.47804 L 422.41363,102.68718 L 411.14374,117.44372 L 409.7783,115.27456 L 413.19501,110.94653 L 409.54545,105.14873 L 404.15923,106.34794 L 402.8567,104.27873" id="text2636" style="fill:#d59f0f"/>
</svg>

<?xml version="1.0" encoding="UTF-8"?>
<svg width="750" height="500" xmlns="http://www.w3.org/2000/svg" xmlns:xlink="http://www.w3.org/1999/xlink">
 <rect id="rect1526" width="750" height="500" fill="#000f5d"/>
 <use id="use4474" transform="translate(94.998 -302.58)" xlink:href="#path72"/>
 <use id="use4472" transform="translate(165.1 -239.96)" xlink:href="#path72"/>
 <use id="use4468" transform="translate(202.32 -149.82)" xlink:href="#path72"/>
 <use id="use4466" transform="translate(126.44 -126.45)" xlink:href="#path72"/>
 <use id="use4464" transform="translate(187.86 -50.087)" xlink:href="#path72"/>
 <use id="use4462" transform="translate(131.66 27.026)" xlink:href="#path72"/>
 <use id="use4460" transform="translate(88.727 -37.115)" xlink:href="#path72"/>
 <use id="use4458" transform="translate(47.98 74.909)" xlink:href="#path72"/>
 <use id="use4442" transform="translate(-52.94 74.909)" xlink:href="#path72"/>
 <use id="use4440" transform="translate(-88.937 -37.115)" xlink:href="#path72"/>
 <use id="use4444" transform="translate(-136.79 27.026)" xlink:href="#path72"/>
 <use id="use4446" transform="translate(-191.94 -50.087)" xlink:href="#path72"/>
 <use id="use4450" transform="translate(-204.37 -149.82)" xlink:href="#path72"/>
 <use id="use4448" transform="translate(-127.05 -126.45)" xlink:href="#path72"/>
 <use id="use4452" transform="translate(-166.34 -239.96)" xlink:href="#path72"/>
 <use id="use4454" transform="translate(-95.803 -302.58)" xlink:href="#path72"/>
 <use id="use4456" transform="translate(-.23142 -328.74)" xlink:href="#path72"/>
 <use id="use4438" transform="matrix(-1 0 0 1 752.21 0)" xlink:href="#path112"/>
 <use id="use4436" transform="matrix(-1 0 0 1 751.83 0)" xlink:href="#path110"/>
 <use id="use4434" transform="matrix(-1 0 0 1 751.66 0)" xlink:href="#path108"/>
 <path id="path72" d="m354.95 372 15.954-0.01158 5.2571-15.586 4.872 15.633 16.068-0.00391-12.454 10.12 4.5133 14.803-13.16-8.8962-13.045 8.9668 4.4425-15.003-12.448-10.022z" fill="#d59f0f"/>
 <path id="path90" d="m346.35 114.65 22.502 0.04759 7.4087-21.985 6.8636 21.995 22.625 0.02229-17.548 14.237 6.358 20.857-18.514-12.505-18.401 12.622 6.2555-21.168-17.551-14.123z" fill="#d59f0f"/>
 <path id="path92" d="m347.53 222.7c-0.04116-0.04039-0.08554-0.09566-0.11354-0.15317-18.136-23.955 0.31178-32.759 0.68493-49.705 12.002 22.282-5.5864 29.213 15.324 49.875l-15.895-0.01668z" fill="#d59f0f"/>
 <path id="path94" d="m367.56 222.72c-6.3852-8.9821-10.864-23.32-8.9482-32.687 1.9001-9.362 8.3872-18.581 7.4883-25.667 3.3789 7.978 6.5566 11.053 5.5727 16.925 5.077-15.141 16.747-22.966 32.568-23.744-28.454 21.622 8.6893 38.239-15.871 65.197l-20.81-0.02439z" fill="#d59f0f"/>
 <path id="path96" d="m393.64 222.75c22.596-27.263-6.1588-41.236 20.047-53.452 0.96433 8.0603-5.4584 8.0544-2.6277 17.919 0.48518 4.2721-0.10653 7.7574-1.4908 10.733 2.6663-3.2683 7.8522-9.4333 11.145-11.832-7.7922 11.739 0.57526 22.011-18.22 36.631l-9.2424 0.00307" fill="#d59f0f"/>
 <path id="path98" d="m389.82 281.58c1.0075-25.563 6.4769-33.344 16.846-44.035-20.122-0.0474-42.608-0.05097-60.905-0.064 10.326 10.708 15.788 18.495 16.742 44.055 9.1065 0.00403 18.211 0.02206 27.317 0.0444z" fill="#d59f0f"/>
 <path id="path100" d="m376.07 343.99 7.9608 24.97 4.3976-74.085c-8.1981-0.0278-16.396-0.03872-24.594-0.05064l4.22 74.119z" fill="#d59f0f"/>
 <path id="path102" d="m375.95 455.95c3.512-3.2566 4.5094-13.866 4.5094-13.866l2.1841-43.299-6.6341-4.6615-6.6492 4.6471 2.1148 43.31s0.94204 10.579 4.4588 13.873l0.01611-0.00347z" fill="#d59f0f"/>
 <path id="path104" d="m411.55 232.96-70.75-0.07592 0.0076-6.715 70.765 0.07273-0.02245 6.7182z" fill="#d59f0f"/>
 <path id="path106" d="m394.32 292.64-37.322-0.0387 0.00998-8.354 37.325 0.05481-0.01347 8.3379z" fill="#d59f0f"/>
 <path id="path108" d="m200.58 226.53 133.23-15.962-0.41641-3.5761-133.26 15.986 0.44365 3.552z" fill="#d59f0f"/>
 <path id="path110" d="m225.9 145.69 109.57 42.132 1.2878-3.3439-109.55-42.134-1.3042 3.3461z" fill="#d59f0f"/>
 <path id="path112" d="m293.74 98.652 47.15 67.173 2.924-2.0761-47.162-67.153-2.9114 2.0565z" fill="#d59f0f"/>
 <path id="path114" d="m373.89 142.72-0.03382 24.444 3.585 0.00324 0.01423-24.457-3.5655 0.00938z" fill="#d59f0f"/>
 <path id="text2636" d="m336.87 114.99-15.482-7.9384 1.0779-2.1021 15.482 7.9384-1.0778 2.1021m2.6377-5.7173-12.509-12.093 1.7979-1.8598 14.735 2.9414c0.32403 0.061343 0.62033 0.1287 0.88889 0.20211 0.26855 0.073438 0.50662 0.15573 0.71422 0.24685l-10.14-9.8021 1.568-1.622 12.509 12.093-1.7814 1.8428-14.986-2.9371c-0.2291-0.046211-0.45841-0.10359-0.6879-0.17211-0.224-0.074162-0.45377-0.15938-0.6893-0.25564l10.14 9.8022-1.5598 1.6135m13.206-28.688-3.7857 1.476 4.8186 12.358 3.7856-1.476c1.6214-0.63218 2.6421-1.6345 3.062-3.0069 0.41708-1.3797 0.22373-3.1003-0.58007-5.1619-0.76951-1.9735-1.7806-3.3204-3.0334-4.0405-1.2528-0.72017-2.6752-0.76985-4.2672-0.14913m-0.39565 16.673-6.3204-16.21 6.1737-2.4072c2.2597-0.88102 4.2506-0.87972 5.9728 0.003905 1.7295 0.88082 3.0906 2.5941 4.0832 5.1398 1.0269 2.6339 1.2028 4.9275 0.52775 6.8812-0.67062 1.9434-2.1211 3.3499-4.3514 4.2195l-6.0857 2.3728m16.362-4.9308-1.3756-17.344 2.355-0.18678 1.3756 17.344-2.355 0.18678m10.643-7.1212 5.3245 1.0216-1.1981-8.0476-4.1264 7.026m-6.3038 6.1512 9.6238-15.87 2.5636 0.4919 3.09 18.309-2.5172-0.48296-0.83032-5.4513-6.7281-1.2909-2.8005 4.7547-2.4012-0.46074m17.006 3.8583 9.8344-14.353 2.1339 1.4622-0.44004 15.019c-0.00639 0.32974-0.02334 0.63313-0.05088 0.91016-0.02757 0.27706-0.06896 0.52552-0.12415 0.74543l7.9717-11.634 1.8611 1.2752-9.8344 14.353-2.1144-1.4488 0.394-15.266c0.00734-0.23359 0.02563-0.46927 0.05486-0.70697 0.03572-0.23324 0.08139-0.47402 0.13697-0.72231l-7.9717 11.634-1.8513-1.2685m21.632 9.4673 2.8882 4.5882 5.0629-6.3692-7.9511 1.7809m-8.7982-0.40747 18.166-3.8007 1.3906 2.2091-11.27 14.757-1.3654-2.1692 3.4167-4.328-3.6496-5.7978-5.3862 1.1992-1.3025-2.0692" fill="#d59f0f"/>
</svg>
